X: 2
T: Fare You Well
M: 2/4
L: 1/16
B: "O'Neill's 2"
N: "Slow" "collected by F. O'Neill"
Z: "Transcribed by Norbert Paap, norbertp@bdu.uva.nl"
K:D
f-g | a3-b g3-a | f4 e3-d | d3-c A3-B | c4 d3-e |
d3-c (3(A2G2F2) | G4F2-G2 | A-d3 d3-e | d6 ||
A2 | d3-e f3-g | a4 a3-g | a3-b a3-f | g4 g3-g |
a3-b a3-g | {e}=f4 e3-c | d3-c A3-G | A6 f-g |
a3-b g3-a | f4 e3-d | d3-c A3-B | c4 d3-e |
d3-c (3(A2G2F2) | G4 F2-G2 | A-d3 d3-e | d6 ||


